packages/icons/src/components/Logo/assets/light/traefik.svg

<svg width="20" height="20" viewBox="0 0 20 20" fill="none" xmlns="http://www.w3.org/2000/svg">
<path d="M10.1393 10.6962L15.9504 7.86033C14.8367 7.49471 13.7398 6.61036 9.8374 6.61036C5.58374 6.61036 4.14628 7.8597 4.14628 7.8597L10.1393 10.6962Z" fill="#C9781F"/>
<path d="M3.54035 11.6237C3.24817 11.4887 3.52692 11.1443 3.67629 11.0356C3.96535 10.8259 4.34815 10.7421 4.70127 10.774L4.67564 11.4009C4.65502 11.7184 4.58689 11.5846 4.35378 11.7456C4.10847 11.9118 3.56598 12.1627 3.53973 11.6206" fill="#F6D2A2"/>
<path d="M3.75535 11.4987C3.70222 11.5706 3.61879 11.5915 3.53973 11.6206Z" fill="#C6B198"/>
<path d="M5.92811 3.02607C4.25971 1.94046 2.71444 4.57915 4.79251 5.16352L5.92811 3.02607ZM15.2429 4.93196C17.1547 4.27698 15.6682 1.67422 14.0236 2.82795L15.2429 4.93196Z" fill="#37ABC8"/>
<path d="M14.3779 18.291C13.9811 18.3541 13.6929 18.6354 13.4654 18.9441C13.9939 19.1041 14.3307 20.2591 14.9329 19.7085C15.5595 19.3301 14.796 18.5495 14.3782 18.2913L14.3779 18.291ZM6.91528 19.1735C6.63654 18.8095 6.30498 18.3517 5.77624 18.4585C5.39625 18.7379 4.66721 19.1498 5.02438 19.7122C5.11751 19.806 5.11157 19.7529 5.17282 19.7804C5.20751 19.8419 5.35469 20.1447 5.73999 19.9154C6.14873 19.691 6.42435 19.2491 6.91497 19.1735H6.91528Z" fill="#F6D2A2"/>
<path d="M5.28969 3.66261C5.01563 3.51793 4.7272 3.48605 4.57189 3.77917C4.40439 4.09604 4.60533 4.29354 4.87939 4.43728L5.28969 3.66261ZM14.4001 3.38762C14.6742 3.24293 14.9626 3.21106 15.1179 3.50418C15.2854 3.82073 15.0845 4.01761 14.8104 4.16229L14.4001 3.38762Z" fill="#077E91"/>
<path d="M16.6963 11.5546C16.9885 11.4196 16.7097 11.0753 16.5604 10.9665C16.2713 10.7568 15.8885 10.6731 15.5354 10.705L15.561 11.3318C15.5816 11.6493 15.6498 11.5156 15.8829 11.6765C16.1282 11.8427 16.6707 12.0934 16.6969 11.5515" fill="#F6D2A2"/>
<path d="M16.4813 11.4306C16.5344 11.5018 16.6179 11.5227 16.6969 11.5518Z" fill="#C6B198"/>
<path d="M9.91052 1.73141C7.6687 1.90828 5.58562 2.42764 4.81314 4.72508C4.06878 6.94003 4.77376 9.20998 4.68252 11.4734C4.6022 13.3839 4.10222 15.9373 5.16469 17.6545C6.06998 19.1182 8.00775 19.641 9.61209 19.6982C11.6536 19.7713 14.1332 19.2735 15.1254 17.2942C16.0685 15.4123 15.8038 13.0674 15.6841 11.0374C15.5451 8.67312 15.8695 6.2613 14.957 4.02385C13.9404 2.02796 11.9905 1.73109 9.91021 1.73109" fill="#37ABC8"/>
<path d="M10.2774 4.52009C10.1533 2.51139 13.2329 1.96859 13.6898 3.92948C14.1992 6.11506 10.6508 6.68817 10.2774 4.52009ZM6.03686 4.87071C5.57375 2.5517 9.2971 2.1139 9.43303 4.38166C9.54709 6.27505 6.52122 6.75816 6.03686 4.87071ZM10.2911 6.84098C10.2802 7.18284 10.2202 7.5144 10.264 7.85658C10.2968 7.93367 10.3487 8.00114 10.4148 8.05264C10.4809 8.10414 10.559 8.13797 10.6418 8.15095C10.7636 8.09564 10.9052 8.08157 10.9771 7.94564C11.0342 7.62034 10.968 7.33722 10.9664 7.04753L10.2911 6.84098Z" fill="white"/>
<path d="M6.87153 5.11602C7.15434 5.11602 7.38245 4.86915 7.38245 4.56291C7.38245 4.25667 7.15433 4.0098 6.87153 4.0098C6.58872 4.0098 6.3606 4.25667 6.3606 4.56291C6.3606 4.86915 6.58872 5.11602 6.87153 5.11602Z" fill="black"/>
<path d="M7.10402 4.8279C7.17058 4.8279 7.22433 4.7654 7.22433 4.68728C7.22433 4.60915 7.1709 4.54665 7.10402 4.54665C7.03715 4.54665 6.9834 4.60915 6.9834 4.68728C6.9834 4.7654 7.03747 4.8279 7.10402 4.8279Z" fill="white"/>
<path d="M11.1527 4.97852C11.4311 4.97852 11.6552 4.73165 11.6552 4.42541C11.6552 4.11917 11.4311 3.8723 11.1527 3.8723C10.8742 3.8723 10.6502 4.11917 10.6502 4.42541C10.6502 4.73165 10.8743 4.97852 11.1527 4.97852Z" fill="black"/>
<path d="M11.3814 4.6904C11.447 4.6904 11.5002 4.6279 11.5002 4.54978C11.5002 4.47166 11.447 4.40916 11.3814 4.40916C11.3158 4.40916 11.2627 4.47166 11.2627 4.54978C11.2627 4.6279 11.3158 4.6904 11.3814 4.6904ZM10.2627 6.89723C10.2521 7.23909 10.1921 7.57065 10.2358 7.91283C9.63084 8.70969 9.28366 7.63065 9.50647 7.09097L10.2627 6.89723Z" fill="white"/>
<path d="M10.8217 6.00131C11.2789 6.19068 11.8642 6.62223 11.4549 7.06379C11.0871 7.46159 10.7121 6.98754 10.2543 6.97816C9.85677 6.92567 9.21804 7.48753 8.93179 6.97129C8.71555 6.58067 9.05523 6.08724 9.47084 6.05194L10.8217 6.00131Z" fill="#F6D2A2"/>
<path d="M9.78771 9.23374C9.78771 9.23374 9.99333 10.379 10.008 11.6202C10.0227 12.8615 9.81084 15.0308 9.70928 15.2942C9.60772 15.5577 9.33835 15.898 9.17554 16.0058C9.01273 16.1136 8.36212 16.3083 7.45276 16.3495C6.54341 16.3908 5.49125 16.1817 4.83814 15.8095C4.18503 15.4373 3.97566 15.0242 3.97566 15.0242C3.97566 15.0242 4.11378 12.813 4.31815 12.3408C4.52252 11.8687 4.90939 12.0515 4.87876 11.0868C4.84814 10.1221 4.2594 10.5096 4.26877 9.89622L4.14628 7.8597L9.78771 9.23374Z" fill="#EF9325"/>
<path d="M9.91427 13.9036C9.98302 13.5349 10.0121 13.2236 9.97052 12.833C9.97052 12.833 7.15871 13.1065 4.37127 12.244C4.1669 12.539 4.12128 13.3765 4.12128 13.3765C4.12128 13.3765 7.23089 14.2024 9.91083 13.9036L9.91427 13.9036ZM9.57397 15.5542C9.75271 15.3261 9.81271 14.9086 9.83771 14.4836C9.83771 14.4836 6.8609 14.6986 4.07347 13.8361C3.96722 14.1896 3.97659 14.9942 3.97659 14.9942C3.97659 14.9942 6.89434 15.8533 9.57428 15.5545L9.57397 15.5542Z" fill="#E5E5E5"/>
<path d="M10.5796 9.23374C10.5796 9.23374 10.3721 10.379 10.3568 11.6202C10.3414 12.8615 10.5558 15.0308 10.6589 15.2942C10.7621 15.5577 11.0349 15.898 11.1996 16.0058C11.3642 16.1136 12.0223 16.3083 12.9439 16.3495C13.8654 16.3908 14.9295 16.1817 15.5913 15.8095C16.2532 15.4373 16.4651 15.0242 16.4651 15.0242C16.4651 15.0242 16.3279 12.813 16.1213 12.3409C15.9148 11.8687 15.5226 12.0515 15.5538 11.0868C15.5851 10.1222 15.9507 10.5096 15.9413 9.89622L15.9507 7.8597L10.5796 9.23374Z" fill="#EF9325"/>
<path d="M10.4593 13.9036C10.3896 13.5349 10.3599 13.2236 10.4021 12.833C10.4021 12.833 13.2492 13.1065 16.0716 12.244C16.2754 12.539 16.3216 13.3765 16.3216 13.3765C16.3216 13.3765 13.1723 14.2024 10.4586 13.9036L10.4593 13.9036ZM10.8002 15.5542C10.6189 15.3261 10.558 14.9086 10.533 14.4836C10.533 14.4836 13.5479 14.6986 16.3698 13.8361C16.4776 14.1896 16.4682 14.9942 16.4682 14.9942C16.4682 14.9942 13.5139 15.8533 10.8002 15.5545L10.8002 15.5542Z" fill="#E5E5E5"/>
<path d="M18.9319 6.89004C19.0163 6.73036 18.9863 6.55005 18.8644 6.48568L18.7669 6.43411C18.6453 6.36974 18.4784 6.44599 18.3941 6.60536L16.4951 10.185C16.4107 10.3446 16.4407 10.525 16.5626 10.5893L16.6601 10.6409C16.7816 10.7053 16.9485 10.629 17.0329 10.4696L18.9319 6.89004Z" fill="#D2E261"/>
<path d="M17.0269 10.4809C17.076 10.3881 17.0175 10.2609 16.8957 10.1965L16.7982 10.145C16.6763 10.0806 16.5379 10.1037 16.4888 10.1962L15.5982 11.8756C15.5491 11.9684 15.6076 12.0955 15.7294 12.1599L15.8269 12.2115C15.9488 12.2759 16.0873 12.2527 16.1363 12.1602L17.0269 10.4809Z" fill="black"/>
<path d="M17.0907 10.3606L17.0338 10.4678C17.0657 10.4078 16.9932 10.3071 16.8713 10.2428L16.7738 10.1912C16.6519 10.1272 16.5276 10.1234 16.4957 10.1834L16.5526 10.0762C16.5847 10.0162 16.7088 10.0197 16.8307 10.084L16.9282 10.1356C17.05 10.1997 17.1225 10.3006 17.0907 10.3606Z" fill="#9B9B9B"/>
<path d="M16.0135 11.4093C16.2304 11.4899 16.4554 11.4196 16.5179 11.2524C16.5804 11.0853 16.4557 10.8846 16.2388 10.804C16.0219 10.7234 15.7969 10.7931 15.7345 10.9609C15.672 11.1281 15.7966 11.3287 16.0135 11.4093Z" fill="#F6D2A2"/>
<path d="M1.53946 6.86441C1.4629 6.70192 1.50102 6.52255 1.6254 6.4638L1.7254 6.41692C1.85008 6.35505 2.0132 6.44255 2.09007 6.60505L3.82285 10.2675C3.89941 10.43 3.86128 10.6093 3.73691 10.6681L3.63691 10.715C3.51285 10.7768 3.34911 10.6893 3.27223 10.5268L1.53946 6.86441Z" fill="#D2E261"/>
<path d="M3.28161 10.5396C3.23661 10.4446 3.30098 10.3203 3.42536 10.2615L3.52535 10.2147C3.64879 10.1565 3.78629 10.1856 3.83097 10.2803L4.64345 11.998C4.68845 12.093 4.62408 12.2174 4.4997 12.2762L4.39971 12.323C4.27627 12.3815 4.13877 12.3521 4.09409 12.2574L3.28161 10.5396Z" fill="black"/>
<path d="M3.21974 10.4162L3.27161 10.5262C3.24255 10.465 3.32005 10.3675 3.44442 10.3087L3.54442 10.2618C3.66941 10.2034 3.79347 10.2053 3.82253 10.2668L3.77066 10.1568C3.74129 10.0956 3.61691 10.0931 3.49254 10.1518L3.39254 10.1987C3.26723 10.2575 3.19067 10.355 3.21974 10.4162Z" fill="#9B9B9B"/>
<path d="M4.12097 10.8509C3.90441 10.9315 3.77972 11.1315 3.84191 11.2993C3.9041 11.4671 4.12972 11.5368 4.34627 11.4562C4.56283 11.3756 4.68783 11.1756 4.62533 11.0078C4.56283 10.8403 4.33752 10.7703 4.12097 10.8509Z" fill="#F6D2A2"/>
<path d="M5.03594 5.97662C5.03594 5.97662 6.26311 4.45228 6.92496 2.54608C6.98715 2.36671 6.94653 2.20452 6.78872 2.11796L6.60747 2.01796C6.44966 1.9314 6.25466 1.98265 6.17216 2.13265L4.28377 5.56319C4.20128 5.71319 4.26221 5.90475 4.42002 5.99131L4.60127 6.09131C4.75908 6.17787 4.95408 6.12662 5.03657 5.97662H5.03594Z" fill="#960000"/>
<path d="M5.53593 4.01729C4.95845 5.06039 4.40533 5.85912 4.27096 5.83788L4.26877 5.84163C4.26621 5.83991 4.26349 5.83844 4.26065 5.83725H4.26096C3.38411 5.34851 3.14818 4.09354 3.73472 3.02794C4.32127 1.96234 5.50906 1.48954 6.39216 1.96765L6.3931 1.96828L6.39998 1.9714L6.3981 1.97515C6.48747 2.07984 6.11061 2.97419 5.53625 4.01729H5.53593Z" fill="#595959"/>
<path d="M14.9995 5.98381C14.9995 5.98381 13.8167 4.4251 13.2104 2.50014C13.1533 2.31889 13.1986 2.15796 13.3589 2.07577L13.5464 1.98078C13.7064 1.89859 13.9001 1.95578 13.9782 2.10796L15.7701 5.59194C15.8485 5.74444 15.7819 5.93412 15.6216 6.01631L15.4341 6.11131C15.2741 6.19349 15.0804 6.13631 15.0023 5.98412L14.9995 5.98381Z" fill="#960000"/>
<path d="M14.5579 4.01323C15.1023 5.07258 15.636 5.88694 15.7704 5.86944L15.7726 5.87319C15.7752 5.87141 15.778 5.86994 15.781 5.86881V5.86819C16.6716 5.40507 16.9435 4.15885 16.3882 3.07575C15.8329 1.99265 14.6601 1.48641 13.7632 1.93828L13.7623 1.93859C13.7601 1.93984 13.7573 1.94046 13.7548 1.94171L13.757 1.94546C13.6642 2.04452 14.0157 2.94919 14.5595 4.01167L14.5579 4.01323Z" fill="#595959"/>
<path d="M16.3304 3.19731C16.3304 3.19731 15.8423 1.53985 14.8873 0.670181C13.9323 -0.199487 6.53154 -0.246985 5.405 0.670181C4.27846 1.58735 3.7091 3.19763 3.7091 3.19763V3.56449C3.7091 3.56449 4.17346 2.2089 5.405 1.03705C6.63653 -0.134799 14.1364 0.166132 14.9029 1.03705C15.6695 1.90797 16.3304 3.56418 16.3304 3.56418V3.19731Z" fill="#353535"/>
<path d="M16.0329 2.56795C15.9054 2.63357 15.9307 2.93669 16.0907 3.24793C16.2507 3.55918 16.4819 3.75699 16.6094 3.69167C16.7369 3.62636 16.7079 3.32293 16.5516 3.01169C16.3916 2.70045 16.1604 2.50233 16.0329 2.56795ZM3.57473 2.96169C3.40598 3.26481 3.3713 3.57011 3.49723 3.6398C3.62317 3.70949 3.85972 3.5148 4.02847 3.21169C4.19722 2.90857 4.2319 2.60264 4.10597 2.53358C3.98003 2.46451 3.74348 2.65607 3.57473 2.96232V2.96169Z" fill="#960000"/>
<path d="M9.41866 6.03006C9.48616 6.5638 11.0846 6.42505 10.9224 5.82319C10.7602 5.22133 9.38772 5.31133 9.41835 6.03006H9.41866Z" fill="black"/>
<path opacity="0.6" d="M13.5067 3.21596C14.542 3.21596 14.8291 6.21745 13.6901 6.74088L11.2511 6.46901C10.9561 6.46901 10.6305 5.45466 10.4874 5.35403C10.3442 5.25341 9.98019 5.26466 9.86988 5.35403C9.75957 5.4434 9.17114 6.584 8.87616 6.584L6.43715 6.74025C5.25811 6.54838 5.25342 3.21533 6.50964 3.21533H13.5045L13.5067 3.21596Z" fill="white"/>
<path opacity="0.5" d="M8.36775 3.90522C9.39522 3.92834 10.2649 4.4052 11.2608 4.4052C11.9677 4.4052 13.442 4.42614 14.3695 4.42614C14.3967 4.83301 14.4857 5.26612 14.3648 5.66986L11.308 5.66674C11.0804 5.66207 10.8539 5.63464 10.6318 5.58486C10.5739 5.46987 10.5243 5.38206 10.4874 5.35612C10.344 5.2555 9.98021 5.26643 9.8699 5.35612C9.86017 5.36517 9.85118 5.37499 9.84303 5.38549C9.40741 5.27175 8.93867 5.16675 8.38243 5.16675L5.55969 5.16362C5.49875 4.71863 5.62187 4.26146 5.73218 3.8999L8.3665 3.90459L8.36775 3.90522Z" fill="white"/>
</svg>

<svg xmlns="http://www.w3.org/2000/svg" width="20" height="20" fill="none" viewBox="0 0 20 20">
    <path fill="#c9781f" d="m10.14 10.696 5.81-2.836c-1.113-.365-2.21-1.25-6.113-1.25-4.253 0-5.69 1.25-5.69 1.25z"/>
    <path fill="#f6d2a2" d="M3.54 11.624c-.292-.135-.013-.48.136-.588a1.54 1.54 0 0 1 1.025-.262l-.025.627c-.021.317-.09.184-.322.345-.246.166-.788.417-.814-.125"/>
    <path fill="#c6b198" d="M3.755 11.499c-.053.072-.136.092-.215.122Z"/>
    <path fill="#37abc8" d="M5.928 3.026C4.26 1.94 2.714 4.58 4.793 5.164zm9.315 1.906c1.912-.655.425-3.258-1.22-2.104z"/>
    <path fill="#f6d2a2" d="M14.378 18.291c-.397.063-.685.344-.913.653.529.16.866 1.315 1.468.765.627-.379-.137-1.16-.555-1.418m-7.463.883c-.278-.364-.61-.822-1.139-.715-.38.279-1.109.69-.752 1.253.094.094.088.04.149.068.035.062.182.365.567.135.409-.224.684-.666 1.175-.741"/>
    <path fill="#077e91" d="M5.29 3.663c-.274-.145-.563-.177-.718.116-.168.317.033.515.307.658zm9.11-.275c.274-.145.563-.177.718.116.167.317-.034.514-.308.658z"/>
    <path fill="#f6d2a2" d="M16.696 11.555c.292-.135.014-.48-.136-.588a1.54 1.54 0 0 0-1.025-.262l.026.627c.02.317.089.184.322.345.245.166.788.416.814-.125"/>
    <path fill="#c6b198" d="M16.481 11.43c.053.072.137.093.216.122Z"/>
    <path fill="#37abc8" d="M9.91 1.731c-2.241.177-4.324.697-5.097 2.994-.744 2.215-.04 4.485-.13 6.748-.08 1.91-.58 4.464.482 6.181.905 1.464 2.843 1.987 4.447 2.044 2.042.073 4.521-.425 5.513-2.404.944-1.882.679-4.227.56-6.257-.14-2.364.184-4.776-.728-7.013C13.94 2.028 11.991 1.73 9.91 1.73"/>
    <path fill="#fff" d="M10.277 4.52c-.124-2.009 2.956-2.551 3.413-.59.51 2.185-3.04 2.758-3.413.59m-4.24.35c-.463-2.318 3.26-2.756 3.396-.488.114 1.893-2.912 2.376-3.396.489m4.254 1.971c-.01.342-.07.673-.027 1.016a.5.5 0 0 0 .378.294c.122-.055.263-.07.335-.205.057-.326-.009-.609-.01-.898z"/>
    <path fill="#000" d="M6.872 5.116c.282 0 .51-.247.51-.553s-.228-.553-.51-.553-.511.247-.511.553.228.553.51.553"/>
    <path fill="#fff" d="M7.104 4.828c.067 0 .12-.063.12-.14 0-.079-.053-.141-.12-.141s-.12.062-.12.14.053.14.12.14"/>
    <path fill="#000" d="M11.153 4.979c.278 0 .502-.247.502-.554 0-.306-.224-.553-.502-.553-.279 0-.503.247-.503.553s.224.554.503.554"/>
    <path fill="#fff" d="M11.381 4.69c.066 0 .12-.062.12-.14s-.054-.14-.12-.14c-.065 0-.118.062-.118.14s.053.14.118.14m-1.118 2.207c-.01.342-.07.674-.027 1.016-.605.797-.952-.282-.73-.822z"/>
    <path fill="#f6d2a2" d="M10.822 6.001c.457.19 1.042.621.633 1.063-.368.398-.743-.076-1.2-.086-.398-.052-1.037.51-1.323-.007-.216-.39.123-.884.539-.92z"/>
    <path fill="#ef9325" d="M9.788 9.234s.205 1.145.22 2.386-.197 3.41-.299 3.674-.37.604-.533.712-.814.302-1.723.343-1.962-.167-2.615-.54c-.653-.372-.862-.785-.862-.785s.138-2.211.342-2.683.591-.29.56-1.254c-.03-.965-.619-.577-.61-1.19L4.147 7.86z"/>
    <path fill="#e5e5e5" d="M9.914 13.904c.069-.37.098-.68.057-1.071 0 0-2.812.274-5.6-.589-.204.295-.25 1.133-.25 1.133s3.11.825 5.79.527zm-.34 1.65c.179-.228.239-.645.264-1.07 0 0-2.977.215-5.765-.648-.106.354-.096 1.158-.096 1.158s2.917.86 5.597.56"/>
    <path fill="#ef9325" d="M10.58 9.234s-.208 1.145-.223 2.386.199 3.41.302 3.674.376.604.54.712.823.302 1.745.343c.921.042 1.986-.167 2.647-.54.662-.372.874-.785.874-.785s-.137-2.211-.344-2.683-.598-.29-.567-1.254c.031-.965.397-.577.387-1.19l.01-2.037z"/>
    <path fill="#e5e5e5" d="M10.46 13.904c-.07-.37-.1-.68-.058-1.071 0 0 2.847.274 5.67-.589.203.295.25 1.133.25 1.133s-3.15.825-5.863.527m.34 1.65c-.181-.228-.242-.645-.267-1.07 0 0 3.015.215 5.837-.648.108.354.098 1.158.098 1.158s-2.954.86-5.668.56"/>
    <path fill="#d2e261" d="M18.932 6.89c.084-.16.054-.34-.068-.404l-.097-.052c-.122-.064-.289.012-.373.171l-1.899 3.58c-.084.16-.054.34.068.404l.097.052c.122.064.288-.012.373-.171z"/>
    <path fill="#000" d="M17.027 10.48c.049-.092-.01-.22-.131-.284l-.098-.051c-.122-.064-.26-.041-.31.051l-.89 1.68c-.049.092.01.22.131.284l.098.051c.122.065.26.042.31-.05z"/>
    <path fill="#9b9b9b" d="m17.09 10.36-.056.108c.032-.06-.04-.16-.163-.225l-.097-.052c-.122-.064-.246-.068-.278-.008l.057-.107c.032-.06.156-.056.278.008l.097.052c.122.064.194.165.163.225"/>
    <path fill="#f6d2a2" d="M16.014 11.41c.216.08.441.01.504-.158.062-.167-.062-.367-.28-.448-.216-.08-.441-.01-.503.157-.063.167.062.368.279.448"/>
    <path fill="#d2e261" d="M1.54 6.864c-.077-.162-.039-.341.085-.4l.1-.047c.125-.062.288.026.365.188l1.733 3.662c.076.163.038.342-.086.401l-.1.047c-.124.062-.288-.026-.365-.188z"/>
    <path fill="#000" d="M3.282 10.54c-.045-.095.019-.22.143-.278l.1-.047c.124-.059.261-.03.306.065l.812 1.718c.045.095-.019.22-.143.278l-.1.047c-.124.059-.261.03-.306-.066z"/>
    <path fill="#9b9b9b" d="m3.22 10.416.052.11c-.03-.061.048-.159.172-.217l.1-.047c.125-.059.25-.057.279.005l-.052-.11c-.03-.061-.154-.064-.278-.005l-.1.047c-.126.059-.202.156-.173.217"/>
    <path fill="#f6d2a2" d="M4.121 10.85c-.217.082-.341.282-.28.45.063.167.289.237.505.156s.342-.28.28-.448c-.063-.168-.288-.238-.505-.157"/>
    <path fill="#960000" d="M5.036 5.977s1.227-1.525 1.889-3.43c.062-.18.022-.342-.136-.429l-.182-.1a.32.32 0 0 0-.435.115l-1.888 3.43a.32.32 0 0 0 .136.428l.181.1a.32.32 0 0 0 .436-.114z"/>
    <path fill="#595959" d="M5.536 4.017C4.958 5.06 4.406 5.86 4.27 5.837l-.002.005-.008-.005c-.877-.488-1.113-1.743-.526-2.81.586-1.065 1.774-1.537 2.657-1.06l.001.001.007.003-.002.004c.09.105-.287 1-.862 2.042"/>
    <path fill="#960000" d="M15 5.984S13.817 4.425 13.21 2.5c-.057-.181-.011-.342.149-.424l.187-.095a.32.32 0 0 1 .432.127l1.792 3.484a.32.32 0 0 1-.148.424l-.188.095a.32.32 0 0 1-.432-.127z"/>
    <path fill="#595959" d="M14.558 4.013c.544 1.06 1.078 1.874 1.212 1.856l.003.004.008-.004c.89-.464 1.162-1.71.607-2.793s-1.728-1.59-2.625-1.138l-.008.004.002.003c-.093.1.259 1.004.803 2.067z"/>
    <path fill="#353535" d="M16.33 3.197S15.842 1.54 14.887.67s-8.355-.917-9.482 0-1.696 2.528-1.696 2.528v.366s.464-1.355 1.696-2.527 8.731-.87 9.498 0c.766.871 1.427 2.527 1.427 2.527z"/>
    <path fill="#960000" d="M16.033 2.568c-.128.066-.102.369.058.68s.39.509.518.444c.128-.066.099-.37-.057-.68-.16-.312-.392-.51-.52-.444m-12.458.394c-.169.303-.204.608-.078.678s.363-.125.531-.428c.17-.303.204-.61.078-.678-.126-.07-.363.122-.531.428"/>
    <path fill="#000" d="M9.419 6.03c.067.534 1.666.395 1.503-.207-.162-.602-1.534-.512-1.504.207"/>
    <path fill="#fff" d="M13.507 3.216c1.035 0 1.322 3.001.183 3.525l-2.439-.272c-.295 0-.62-1.014-.764-1.115-.143-.1-.507-.09-.617 0s-.699 1.23-.994 1.23l-2.439.156c-1.179-.192-1.184-3.525.073-3.525h6.995z" opacity=".6"/>
    <path fill="#fff" d="M8.368 3.905c1.027.023 1.897.5 2.893.5.707 0 2.181.021 3.109.021.027.407.116.84-.005 1.244l-3.057-.003a3.4 3.4 0 0 1-.676-.082c-.058-.115-.108-.203-.145-.229-.143-.1-.507-.09-.617 0l-.027.03c-.436-.114-.904-.22-1.46-.22L5.56 5.165c-.061-.445.062-.903.172-1.264l2.635.005" opacity=".5"/>
</svg>
